Origami/64x64/apps/nip2.svg

<svg width="64" height="64" version="1" xmlns="http://www.w3.org/2000/svg">
 <path d="m6.8 8.0000002c-1.5512 0-2.8 1.2388888-2.8 2.7777778v33.333334 11.11111c0 1.53889 1.2488 2.777778 2.8 2.777778h50.4c1.5512 0 2.8-1.238888 2.8-2.777778v-11.11111-33.333334c0-1.538889-1.2488-2.7777778-2.8-2.7777778h-50.4z" style="opacity:.2"/>
 <path d="m6.8 7.0000002c-1.5512 0-2.8 1.2388888-2.8 2.7777776v33.333334 11.11111c0 1.53889 1.2488 2.777778 2.8 2.777778h50.4c1.5512 0 2.8-1.238888 2.8-2.777778v-11.11111-33.333334c0-1.5388888-1.2488-2.7777776-2.8-2.7777776h-50.4z" style="fill:#cccccc"/>
 <rect x="8" y="11" width="48" height="42" style="fill:#494949"/>
 <path d="m7.9999992 30.999998s4.2352938-4.999998 9.8823538-4.999998c5.647059 0 10.056611 4.10047 15.529411 4 5.472802-0.10046 9.882354-10 14.117648-10s8.47059 2.599998 8.47059 2.599998v29.400002h-48.000003z" style="opacity:.1"/>
 <path d="m7.9999992 31.999998s4.2352938-4.999998 9.8823538-4.999998c5.647059 0 10.056611 4.10047 15.529411 4 5.472802-0.10046 9.882354-10 14.117648-10s8.47059 2.599998 8.47059 2.599998v29.400002h-48.000003z" style="fill:#4966ff"/>
 <path d="m7.9999992 36.599998s1.4117648 5.600002 4.2352938 5.600002c2.82353 0 7.058824-6.2 12.705883-6.2 5.64706 0 14.117648 6.2 18.352942 6.2s12.705884-5.600002 12.705884-5.600002v15.400002h-48.000003z" style="opacity:.1"/>
 <path d="m7.9999992 37.599998s1.4117648 5.600002 4.2352938 5.600002c2.82353 0 7.058824-6.2 12.705883-6.2 5.64706 0 14.117648 6.2 18.352942 6.2s12.705884-5.600002 12.705884-5.600002v15.400002h-48.000003z" style="fill:#19c171"/>
 <path d="m47.53125 21c-4.235294 0-8.648292 9.89954-14.121094 10-5.4728 0.10048-9.880284-4-15.527344-4-5.647059 0-9.882812 5-9.882812 5v1s4.235754-5 9.882812-5c5.64706 0 10.054544 4.10048 15.527344 4 5.472802-0.10046 9.8858-10 14.121094-10s8.46875 2.601562 8.46875 2.601562v-1s-4.233456-2.601562-8.46875-2.601562z" style="fill:#ffffff;opacity:.1"/>
 <path d="m24.941406 37c-5.647059 0-9.883501 6.199219-12.707031 6.199219-2.8235294 0-4.234375-5.597657-4.234375-5.597657v1s1.4108456 5.597657 4.234375 5.597657c2.82353 0 7.059972-6.199219 12.707031-6.199219 5.64706 0 14.116269 6.199219 18.351563 6.199219s12.707031-5.597657 12.707031-5.597657v-1s-8.471737 5.597657-12.707031 5.597657-12.704503-6.199219-18.351563-6.199219z" style="fill:#ffffff;opacity:.1"/>
 <path d="M 6.8007812 7 C 5.2495812 7 4 8.238455 4 9.7773438 L 4 10.777344 C 4 9.2384548 5.2495812 8 6.8007812 8 L 57.199219 8 C 58.750419 8 60 9.2384548 60 10.777344 L 60 9.7773438 C 60 8.2384549 58.750419 7 57.199219 7 L 6.8007812 7 z" style="fill:#ffffff;opacity:.1"/>
</svg>

<svg xmlns="http://www.w3.org/2000/svg" width="64" height="64" version="1">
 <path style="opacity:0.2" d="m 6.8,8.0000002 c -1.5512,0 -2.8,1.2388888 -2.8,2.7777778 l 0,33.333334 0,11.11111 C 4,56.761112 5.2488,58 6.8,58 l 50.4,0 c 1.5512,0 2.8,-1.238888 2.8,-2.777778 l 0,-11.11111 0,-33.333334 C 60,9.238889 58.7512,8.0000002 57.2,8.0000002 l -50.4,0 z"/>
 <path style="fill:#cccccc" d="M 6.8,7.0000002 C 5.2488,7.0000002 4,8.238889 4,9.7777778 L 4,43.111112 4,54.222222 C 4,55.761112 5.2488,57 6.8,57 l 50.4,0 C 58.7512,57 60,55.761112 60,54.222222 L 60,43.111112 60,9.7777778 C 60,8.238889 58.7512,7.0000002 57.2,7.0000002 l -50.4,0 z"/>
 <rect style="fill:#494949" width="48" height="42" x="8" y="11"/>
 <path style="opacity:0.1" d="m 7.9999992,30.999998 c 0,0 4.2352938,-4.999998 9.8823538,-4.999998 5.647059,0 10.056611,4.10047 15.529411,4 5.472802,-0.10046 9.882354,-10 14.117648,-10 4.235294,0 8.47059,2.599998 8.47059,2.599998 l 0,29.400002 -48.0000028,0 z"/>
 <path style="fill:#4966ff" d="m 7.9999992,31.999998 c 0,0 4.2352938,-4.999998 9.8823538,-4.999998 5.647059,0 10.056611,4.10047 15.529411,4 5.472802,-0.10046 9.882354,-10 14.117648,-10 4.235294,0 8.47059,2.599998 8.47059,2.599998 l 0,29.400002 -48.0000028,0 z"/>
 <path style="opacity:0.1" d="m 7.9999992,36.599998 c 0,0 1.4117648,5.600002 4.2352938,5.600002 2.82353,0 7.058824,-6.2 12.705883,-6.2 5.64706,0 14.117648,6.2 18.352942,6.2 4.235294,0 12.705884,-5.600002 12.705884,-5.600002 l 0,15.400002 -48.0000028,0 z"/>
 <path style="fill:#19c171" d="m 7.9999992,37.599998 c 0,0 1.4117648,5.600002 4.2352938,5.600002 2.82353,0 7.058824,-6.2 12.705883,-6.2 5.64706,0 14.117648,6.2 18.352942,6.2 4.235294,0 12.705884,-5.600002 12.705884,-5.600002 l 0,15.400002 -48.0000028,0 z"/>
 <path style="opacity:0.1;fill:#ffffff" d="M 47.53125 21 C 43.295956 21 38.882958 30.89954 33.410156 31 C 27.937356 31.10048 23.529872 27 17.882812 27 C 12.235753 27 8 32 8 32 L 8 33 C 8 33 12.235754 28 17.882812 28 C 23.529872 28 27.937356 32.10048 33.410156 32 C 38.882958 31.89954 43.295956 22 47.53125 22 C 51.766544 22 56 24.601562 56 24.601562 L 56 23.601562 C 56 23.601562 51.766544 21 47.53125 21 z"/>
 <path style="opacity:0.1;fill:#ffffff" d="M 24.941406 37 C 19.294347 37 15.057905 43.199219 12.234375 43.199219 C 9.4108456 43.199219 8 37.601562 8 37.601562 L 8 38.601562 C 8 38.601562 9.4108456 44.199219 12.234375 44.199219 C 15.057905 44.199219 19.294347 38 24.941406 38 C 30.588466 38 39.057675 44.199219 43.292969 44.199219 C 47.528263 44.199219 56 38.601562 56 38.601562 L 56 37.601562 C 56 37.601562 47.528263 43.199219 43.292969 43.199219 C 39.057675 43.199219 30.588466 37 24.941406 37 z"/>
 <path style="opacity:0.1;fill:#ffffff" d="M 6.8007812 7 C 5.2495812 7 4 8.238455 4 9.7773438 L 4 10.777344 C 4 9.2384548 5.2495812 8 6.8007812 8 L 57.199219 8 C 58.750419 8 60 9.2384548 60 10.777344 L 60 9.7773438 C 60 8.2384549 58.750419 7 57.199219 7 L 6.8007812 7 z"/>
</svg>
